packages/ui-icons/svg/Line/table-row-properties.svg

<svg viewBox="0 0 1920 1920" xmlns="http://www.w3.org/2000/svg">
    <path d="M1740 0c99.24 0 180 80.76 180 180v1560c0 99.24-80.76 180-180 180H180c-99.24 0-180-80.76-180-180V180C0 80.76 80.76 0 180 0Zm60 1320h-480v480h420c33 0 60-27 60-60v-420Zm-600 0H720v480h480v-480Zm-600 0H120v420c0 33 27 60 60 60h420v-480ZM1740 120h-420v480h480V180c0-33-27-60-60-60Zm-540 0H720v480h480V120Zm-600 0H180c-33 0-60 27-60 60v420h480V120Z" fill-rule="evenodd"/>
</svg>

<svg viewBox="0 0 1920 1920" version="1.1" xmlns="http://www.w3.org/2000/svg">
    <path d="M1740,0 C1839.24,0 1920,80.76 1920,180 L1920,180 L1920,1740 C1920,1839.24 1839.24,1920 1740,1920 L1740,1920 L180,1920 C80.76,1920 0,1839.24 0,1740 L0,1740 L0,180 C0,80.76 80.76,0 180,0 L180,0 Z M1800,1320 L1320,1320 L1320,1800 L1740,1800 C1773,1800 1800,1773 1800,1740 L1800,1740 L1800,1320 Z M1200,1320 L720,1320 L720,1800 L1200,1800 L1200,1320 Z M600,1320 L120,1320 L120,1740 C120,1773 147,1800 180,1800 L180,1800 L600,1800 L600,1320 Z M1740,120 L1320,120 L1320,600 L1800,600 L1800,180 C1800,147 1773,120 1740,120 L1740,120 Z M1200,120 L720,120 L720,600 L1200,600 L1200,120 Z M600,120 L180,120 C147,120 120,147 120,180 L120,180 L120,600 L600,600 L600,120 Z" stroke="none" stroke-width="1" fill-rule="evenodd"/>
</svg>
